;Generated by Cura LulzBot Edition GCodeWriter Version: 3.6.36
;FLAVOR:Marlin
;TIME:1443
;Filament used: 0.275284m
;Layer height: 0.25
;Generated with Cura_SteamEngine 3.6.36-macos
M82 ;absolute extrusion mode
;This G-Code has been generated specifically for the LulzBot Mini 2 with SE 0.5mm Tool Head
;
;The following lines can be uncommented for printer specific fine tuning
;More information can be found at https://marlinfw.org/meta/gcode/
;
;M92 E420                 ;Set Axis Steps-per-unit
;M301 P21.0 I1.78 D61.93  ;Set Hotend PID
;M906 E960                ;TMC Motor Current
;
M73 P0                  ; clear GLCD progress bar
M75 					; Start GLCD Print Timer
G26 					; clear potential 'probe fail' condition
M107 					; disable fans
M420 S0                 ; disable leveling matrix
G90 					; absolute positioning
M82 					; set extruder to absolute mode
G92 E0 					; set extruder position to 0
M140 S60.0 ; start bed heating up
G28 					; home all axes
G0 X0 Y187 Z156 F200 			; move away from endstops
M117 Mini 2 Wiping...			; progress indicator message on LCD
M109 R140 	; soften filament before retraction
G1 E-15 F75 				; retract filament
M109 R140                  ; wait for extruder to reach wiping temp
;M206 X0 Y0 Z0              ; uncomment to adjust wipe position (+X ~ nozzle moves left)(+Y ~ nozzle moves forward)(+Z ~ nozzle moves down)
G12                         ; wiping sequence
M206 X0 Y0 Z0               ; reseting stock nozzle position ### CAUTION: changing this line can affect print quality ###
G28 X0 Y0				; home X and Y
M109 R140	; wait for extruder to reach probe temp
M204 S300				; set probing acceleration
G29					; start auto-leveling sequence
M420 S1                     ; enable leveling matrix
M425 Z			     		; use measured Z backlash for compensation
M425 Z F0		     		; turn off measured Z backlash compensation. (if activated in the quality settings, this command will automatically be ignored)
M204 S2000				; restore standard acceleration
G1 X5 Y15 Z10 F5000			; move up off last probe point
G4 S1					; pause
M400					; wait for moves to finish
M117 Heating...				; progress indicator message on LCD
M109 R210 ; wait for extruder to reach initial printing temp
M190 R60.0 ; wait for bed to reach printing temp
G1 Z2 E0 F75				; prime tiny bit of filament into the nozzle
M117 Mini 2 Printing...		; progress indicator message on LCD

M221 S100 T0
G92 E0
G1 F600 E-1.75
;LAYER_COUNT:40
;LAYER:0
M425 F1.0
M107
G0 F2625 X65.371 Y70.189 Z0.425
;TYPE:SKIRT
G1 F600 E0
G1 F900 X65.652 Y69.943 E0.01244
G1 X66.141 Y69.568 E0.03297
G1 X66.674 Y69.26 E0.05347
G1 X67.243 Y69.023 E0.074
G1 X67.838 Y68.862 E0.09454
G1 X68.448 Y68.779 E0.11504
G1 X68.778 Y68.767 E0.12604
G1 X93.152 Y68.75 E0.93795
G1 X93.767 Y68.79 E0.95848
G1 X94.371 Y68.908 E0.97898
G1 X94.955 Y69.104 E0.9995
G1 X95.509 Y69.374 E1.02003
G1 X96.035 Y69.722 E1.04104
G1 X96.38 Y69.985 E1.05549
G1 X96.844 Y70.39 E1.076
G1 X97.253 Y70.851 E1.09653
G1 X97.598 Y71.361 E1.11704
G1 X97.875 Y71.912 E1.13758
G1 X98.077 Y72.494 E1.15811
G1 X98.203 Y73.097 E1.17863
G1 X98.25 Y73.763 E1.20087
G1 X98.25 Y88.237 E1.683
G1 X98.21 Y88.852 E1.70353
G1 X98.091 Y89.456 E1.72403
G1 X97.894 Y90.04 E1.74457
G1 X97.624 Y90.594 E1.76509
G1 X97.284 Y91.108 E1.78562
G1 X96.881 Y91.574 E1.80614
G1 X96.629 Y91.811 E1.81767
G1 X96.348 Y92.057 E1.83011
G1 X95.859 Y92.432 E1.85064
G1 X95.326 Y92.74 E1.87114
G1 X94.757 Y92.977 E1.89167
G1 X94.162 Y93.138 E1.91221
G1 X93.552 Y93.221 E1.93271
G1 X93.222 Y93.233 E1.94371
G1 X68.848 Y93.25 E2.75562
G1 X68.233 Y93.21 E2.77615
G1 X67.629 Y93.092 E2.79665
G1 X67.045 Y92.896 E2.81717
G1 X66.614 Y92.693 E2.83304
G1 X66.334 Y92.544 E2.8436
G1 X65.81 Y92.22 E2.86412
G1 X65.332 Y91.831 E2.88465
G1 X64.909 Y91.383 E2.90518
G1 X64.439 Y90.704 E2.93268
G1 X64.374 Y90.59 E2.93705
G1 X64.104 Y90.036 E2.95758
G1 X63.908 Y89.452 E2.9781
G1 X63.789 Y88.847 E2.99864
G1 X63.75 Y88.237 E3.019
G1 X63.75 Y73.763 E3.50114
G1 X63.79 Y73.148 E3.52167
G1 X63.909 Y72.544 E3.54217
G1 X64.106 Y71.96 E3.5627
G1 X64.376 Y71.406 E3.58323
G1 X64.716 Y70.892 E3.60376
G1 X65.119 Y70.426 E3.62428
G1 X65.371 Y70.189 E3.63581
G0 F2625 X65.701 Y70.565
G1 F900 X65.982 Y70.319 E3.64825
G1 X66.445 Y69.966 E3.66764
G1 X66.953 Y69.68 E3.68706
G1 X67.495 Y69.466 E3.70647
G1 X68.061 Y69.328 E3.72588
G1 X68.778 Y69.267 E3.74985
G1 X93.152 Y69.25 E4.56175
G1 X93.733 Y69.29 E4.58115
G1 X94.304 Y69.408 E4.60057
G1 X94.853 Y69.604 E4.61999
G1 X95.37 Y69.873 E4.6394
G1 X95.732 Y70.12 E4.654
G1 X96.077 Y70.383 E4.66845
G1 X96.515 Y70.767 E4.68786
G1 X96.896 Y71.208 E4.70727
G1 X97.214 Y71.696 E4.72667
G1 X97.462 Y72.224 E4.7461
G1 X97.635 Y72.78 E4.7655
G1 X97.73 Y73.355 E4.78491
G1 X97.75 Y73.763 E4.79852
G1 X97.75 Y88.237 E5.28065
G1 X97.71 Y88.818 E5.30005
G1 X97.591 Y89.389 E5.31948
G1 X97.395 Y89.938 E5.3389
G1 X97.126 Y90.454 E5.35828
G1 X96.788 Y90.93 E5.37773
G1 X96.299 Y91.435 E5.40114
G1 X96.018 Y91.681 E5.41358
G1 X95.555 Y92.034 E5.43298
G1 X95.047 Y92.32 E5.4524
G1 X94.505 Y92.534 E5.47181
G1 X93.939 Y92.672 E5.49121
G1 X93.222 Y92.733 E5.51518
G1 X68.848 Y92.75 E6.32709
G1 X68.267 Y92.71 E6.34649
G1 X67.696 Y92.592 E6.36591
G1 X67.147 Y92.396 E6.38533
G1 X66.848 Y92.252 E6.39638
G1 X66.568 Y92.103 E6.40695
G1 X66.074 Y91.794 E6.42636
G1 X65.626 Y91.421 E6.44578
G1 X65.234 Y90.99 E6.46518
G1 X64.873 Y90.456 E6.48666
G1 X64.808 Y90.342 E6.49103
G1 X64.555 Y89.817 E6.51044
G1 X64.376 Y89.263 E6.52983
G1 X64.274 Y88.689 E6.54925
G1 X64.25 Y88.237 E6.56433
G1 X64.25 Y73.763 E7.04646
G1 X64.29 Y73.182 E7.06586
G1 X64.409 Y72.611 E7.08529
G1 X64.605 Y72.062 E7.10471
G1 X64.874 Y71.546 E7.12409
G1 X65.212 Y71.07 E7.14354
G1 X65.701 Y70.565 E7.16696
G0 F2625 X66.03 Y70.941
G1 F900 X66.311 Y70.695 E7.1794
G1 X66.748 Y70.366 E7.19762
G1 X67.228 Y70.104 E7.21583
G1 X67.742 Y69.914 E7.23409
G1 X68.277 Y69.801 E7.2523
G1 X68.778 Y69.767 E7.26903
G1 X93.152 Y69.75 E8.08093
G1 X93.698 Y69.79 E8.09917
G1 X94.233 Y69.908 E8.11742
G1 X94.744 Y70.103 E8.13564
G1 X95.428 Y70.518 E8.16229
G1 X95.773 Y70.781 E8.17674
G1 X96.183 Y71.143 E8.19496
G1 X96.536 Y71.562 E8.21321
G1 X96.824 Y72.027 E8.23143
G1 X97.041 Y72.53 E8.24968
G1 X97.183 Y73.058 E8.26789
G1 X97.25 Y73.763 E8.29148
G1 X97.25 Y88.237 E8.77361
G1 X97.21 Y88.783 E8.79185
G1 X97.091 Y89.317 E8.81007
G1 X96.896 Y89.828 E8.82829
G1 X96.628 Y90.306 E8.84655
G1 X96.293 Y90.739 E8.86478
G1 X95.97 Y91.059 E8.87993
G1 X95.689 Y91.305 E8.89237
G1 X95.252 Y91.634 E8.91059
G1 X94.772 Y91.896 E8.9288
G1 X94.258 Y92.086 E8.94706
G1 X93.723 Y92.199 E8.96527
G1 X93.222 Y92.233 E8.982
G1 X68.848 Y92.25 E9.79391
G1 X68.302 Y92.21 E9.81214
G1 X67.767 Y92.092 E9.83039
G1 X67.083 Y91.81 E9.85504
G1 X66.803 Y91.661 E9.8656
G1 X66.34 Y91.37 E9.88382
G1 X65.924 Y91.014 E9.90206
G1 X65.565 Y90.601 E9.92028
G1 X65.307 Y90.208 E9.93594
G1 X65.242 Y90.094 E9.94031
G1 X65.007 Y89.6 E9.95854
G1 X64.845 Y89.077 E9.97678
G1 X64.762 Y88.536 E9.99501
G1 X64.75 Y88.237 E10.00497
G1 X64.75 Y73.763 E10.48711
G1 X64.79 Y73.217 E10.50535
G1 X64.909 Y72.683 E10.52357
G1 X65.104 Y72.172 E10.54179
G1 X65.372 Y71.694 E10.56004
G1 X65.707 Y71.261 E10.57828
G1 X66.03 Y70.941 E10.59342
G0 F2625 X66.359 Y71.318
G1 F900 X66.64 Y71.072 E10.60586
G1 X67.049 Y70.767 E10.62286
G1 X67.5 Y70.53 E10.63983
G1 X67.982 Y70.367 E10.65678
G1 X68.485 Y70.281 E10.67378
G1 X68.779 Y70.267 E10.68358
G1 X93.153 Y70.25 E11.49549
G1 X93.661 Y70.29 E11.51246
G1 X94.156 Y70.408 E11.52941
G1 X94.627 Y70.603 E11.54639
G1 X95.125 Y70.915 E11.56597
G1 X95.47 Y71.178 E11.58042
G1 X95.85 Y71.518 E11.5974
G1 X96.172 Y71.913 E11.61438
G1 X96.428 Y72.353 E11.63134
G1 X96.613 Y72.828 E11.64832
G1 X96.721 Y73.326 E11.66529
G1 X96.75 Y73.763 E11.67988
G1 X96.75 Y88.237 E12.16201
G1 X96.71 Y88.745 E12.17899
G1 X96.591 Y89.24 E12.19595
G1 X96.396 Y89.711 E12.21293
G1 X96.13 Y90.146 E12.22991
G1 X95.641 Y90.682 E12.25408
G1 X95.36 Y90.928 E12.26652
G1 X94.951 Y91.233 E12.28351
G1 X94.5 Y91.47 E12.30049
G1 X94.018 Y91.633 E12.31743
G1 X93.515 Y91.719 E12.33443
G1 X93.221 Y91.733 E12.34424
G1 X68.847 Y91.75 E13.15614
G1 X68.339 Y91.71 E13.17312
G1 X67.844 Y91.592 E13.19007
G1 X67.318 Y91.369 E13.2091
G1 X67.038 Y91.22 E13.21966
G1 X66.609 Y90.946 E13.23662
G1 X66.227 Y90.609 E13.25359
G1 X65.903 Y90.215 E13.27058
G1 X65.742 Y89.961 E13.2806
G1 X65.677 Y89.847 E13.28497
G1 X65.46 Y89.386 E13.30194
G1 X65.318 Y88.896 E13.31894
G1 X65.25 Y88.237 E13.341
G1 X65.25 Y73.763 E13.82314
G1 X65.29 Y73.255 E13.84011
G1 X65.409 Y72.76 E13.85707
G1 X65.604 Y72.289 E13.87405
G1 X65.87 Y71.854 E13.89104
G1 X66.359 Y71.318 E13.9152
G0 F2625 X66.689 Y71.694
G1 F900 X66.97 Y71.448 E13.92764
G1 X67.347 Y71.17 E13.94325
G1 X67.766 Y70.961 E13.95884
G1 X68.215 Y70.826 E13.97446
G1 X68.779 Y70.767 E13.99335
G1 X93.153 Y70.75 E14.80526
G1 X93.62 Y70.79 E14.82087
G1 X94.073 Y70.908 E14.83646
G1 X94.5 Y71.101 E14.85207
G1 X94.822 Y71.313 E14.86492
G1 X95.167 Y71.576 E14.87937
G1 X95.514 Y71.891 E14.89498
G1 X95.803 Y72.26 E14.91059
G1 X96.025 Y72.673 E14.92621
G1 X96.173 Y73.117 E14.9418
G1 X96.25 Y73.763 E14.96347
G1 X96.25 Y88.237 E15.4456
G1 X96.21 Y88.704 E15.46122
G1 X96.091 Y89.157 E15.47682
G1 X95.898 Y89.584 E15.49243
G1 X95.634 Y89.971 E15.50803
G1 X95.311 Y90.306 E15.52353
G1 X95.03 Y90.552 E15.53597
G1 X94.653 Y90.83 E15.55158
G1 X94.234 Y91.039 E15.56717
G1 X93.785 Y91.174 E15.58279
G1 X93.221 Y91.233 E15.60168
G1 X68.847 Y91.25 E16.41359
G1 X68.38 Y91.21 E16.4292
G1 X67.927 Y91.092 E16.44479
G1 X67.553 Y90.928 E16.4584
G1 X67.273 Y90.779 E16.46896
G1 X66.88 Y90.524 E16.48457
G1 X66.535 Y90.206 E16.5002
G1 X66.176 Y89.713 E16.52051
G1 X66.111 Y89.599 E16.52488
G1 X65.914 Y89.174 E16.54049
G1 X65.793 Y88.721 E16.5561
G1 X65.75 Y88.237 E16.57229
G1 X65.75 Y73.763 E17.05442
G1 X65.79 Y73.296 E17.07004
G1 X65.909 Y72.843 E17.08564
G1 X66.102 Y72.416 E17.10125
G1 X66.366 Y72.029 E17.11685
G1 X66.689 Y71.694 E17.13235
G0 F2625 X67.018 Y72.07
G1 F900 X67.299 Y71.824 E17.14479
G1 X67.643 Y71.576 E17.15892
G1 X68.027 Y71.397 E17.17303
G1 X68.438 Y71.293 E17.18715
G1 X68.779 Y71.267 E17.19855
G1 X93.153 Y71.25 E18.01045
G1 X93.575 Y71.29 E18.02457
G1 X93.982 Y71.408 E18.03869
G1 X94.519 Y71.711 E18.05923
G1 X94.864 Y71.974 E18.07368
G1 X95.175 Y72.261 E18.08777
G1 X95.427 Y72.602 E18.1019
G1 X95.611 Y72.984 E18.11602
G1 X95.719 Y73.394 E18.13015
G1 X95.75 Y73.763 E18.14248
G1 X95.75 Y88.237 E18.62461
G1 X95.71 Y88.659 E18.63873
G1 X95.592 Y89.066 E18.65285
G1 X95.399 Y89.443 E18.66696
G1 X95.139 Y89.778 E18.68108
G1 X94.982 Y89.93 E18.68836
G1 X94.701 Y90.176 E18.7008
G1 X94.357 Y90.424 E18.71493
G1 X93.973 Y90.603 E18.72904
G1 X93.562 Y90.707 E18.74316
G1 X93.221 Y90.733 E18.75456
G1 X68.847 Y90.75 E19.56646
G1 X68.425 Y90.71 E19.58058
G1 X68.018 Y90.592 E19.5947
G1 X67.788 Y90.486 E19.60313
G1 X67.508 Y90.337 E19.6137
G1 X67.154 Y90.104 E19.62782
G1 X66.851 Y89.808 E19.64193
G1 X66.61 Y89.465 E19.65589
G1 X66.545 Y89.351 E19.66026
G1 X66.371 Y88.965 E19.67436
G1 X66.272 Y88.553 E19.68848
G1 X66.25 Y88.237 E19.69903
G1 X66.25 Y73.763 E20.18117
G1 X66.29 Y73.341 E20.19529
G1 X66.408 Y72.934 E20.2094
G1 X66.601 Y72.557 E20.22351
G1 X66.861 Y72.222 E20.23763
G1 X67.018 Y72.07 E20.24491
G0 F2625 X67.347 Y72.446
G1 F900 X67.628 Y72.2 E20.25735
G1 X67.934 Y71.986 E20.26979
G1 X68.278 Y71.841 E20.28223
G1 X68.78 Y71.767 E20.29913
G1 X93.154 Y71.75 E21.11104
G1 X93.525 Y71.79 E21.12347
G1 X93.88 Y71.907 E21.13592
G1 X94.216 Y72.108 E21.14896
G1 X94.561 Y72.371 E21.16341
G1 X94.832 Y72.628 E21.17585
G1 X95.043 Y72.937 E21.18831
G1 X95.183 Y73.283 E21.20075
G1 X95.25 Y73.763 E21.21689
G1 X95.25 Y88.237 E21.69903
G1 X95.21 Y88.608 E21.71146
G1 X95.092 Y88.963 E21.72392
G1 X94.902 Y89.285 E21.73637
G1 X94.653 Y89.554 E21.74858
G1 X94.372 Y89.8 E21.76102
G1 X94.066 Y90.014 E21.77346
G1 X93.722 Y90.159 E21.78589
G1 X93.22 Y90.233 E21.8028
G1 X68.846 Y90.25 E22.6147
G1 X68.475 Y90.21 E22.62713
G1 X68.023 Y90.045 E22.64316
G1 X67.743 Y89.896 E22.65373
G1 X67.434 Y89.686 E22.66617
G1 X67.176 Y89.416 E22.67861
G1 X67.045 Y89.218 E22.68652
G1 X66.98 Y89.104 E22.69089
G1 X66.83 Y88.761 E22.70336
G1 X66.75 Y88.237 E22.72102
G1 X66.75 Y73.763 E23.20315
G1 X66.79 Y73.392 E23.21558
G1 X66.908 Y73.037 E23.22804
G1 X67.098 Y72.715 E23.2405
G1 X67.347 Y72.446 E23.25271
G0 F2625 X67.677 Y72.822
G1 F900 X67.958 Y72.576 E23.26515
G1 X68.219 Y72.4 E23.27563
G1 X68.517 Y72.295 E23.28616
G1 X68.78 Y72.267 E23.29497
G1 X93.154 Y72.25 E24.10688
G1 X93.467 Y72.29 E24.11739
G1 X93.76 Y72.406 E24.12788
G1 X93.913 Y72.506 E24.13397
G1 X94.258 Y72.769 E24.14842
G1 X94.483 Y72.99 E24.15893
G1 X94.645 Y73.261 E24.16944
G1 X94.734 Y73.564 E24.17996
G1 X94.75 Y73.763 E24.18661
G1 X94.75 Y88.237 E24.66875
G1 X94.71 Y88.55 E24.67926
G1 X94.593 Y88.843 E24.68977
G1 X94.323 Y89.178 E24.7041
G1 X94.042 Y89.424 E24.71654
G1 X93.781 Y89.6 E24.72703
G1 X93.483 Y89.705 E24.73755
G1 X93.22 Y89.733 E24.74636
G1 X68.846 Y89.75 E25.55827
G1 X68.533 Y89.71 E25.56878
G1 X68.258 Y89.603 E25.57861
G1 X67.978 Y89.454 E25.58917
G1 X67.72 Y89.272 E25.59969
G1 X67.479 Y88.97 E25.61256
G1 X67.414 Y88.856 E25.61693
G1 X67.294 Y88.564 E25.62745
G1 X67.25 Y88.237 E25.63844
G1 X67.25 Y73.763 E26.12057
G1 X67.29 Y73.45 E26.13109
G1 X67.407 Y73.157 E26.14159
G1 X67.677 Y72.822 E26.15593
G0 F2625 X68.006 Y73.199
G1 F900 X68.287 Y72.953 E26.16837
G1 X68.494 Y72.824 E26.17649
G1 X68.78 Y72.767 E26.18621
G1 X93.154 Y72.75 E26.99811
G1 X93.395 Y72.79 E27.00625
G1 X93.61 Y72.904 E27.01436
G1 X93.955 Y73.167 E27.02881
G1 X94.122 Y73.344 E27.03691
G1 X94.224 Y73.566 E27.04505
G1 X94.25 Y73.763 E27.05167
G1 X94.25 Y88.237 E27.5338
G1 X94.21 Y88.478 E27.54194
G1 X94.095 Y88.693 E27.55006
G1 X93.994 Y88.801 E27.55499
G1 X93.713 Y89.047 E27.56743
G1 X93.506 Y89.176 E27.57555
G1 X93.22 Y89.233 E27.58527
G1 X68.846 Y89.25 E28.39717
G1 X68.493 Y89.162 E28.40929
G1 X68.213 Y89.013 E28.41986
G1 X68.019 Y88.865 E28.42799
G1 X67.913 Y88.722 E28.43392
G1 X67.848 Y88.608 E28.43829
G1 X67.764 Y88.38 E28.44638
G1 X67.75 Y88.237 E28.45117
G1 X67.75 Y73.763 E28.9333
G1 X67.79 Y73.522 E28.94144
G1 X67.905 Y73.307 E28.94956
G1 X68.006 Y73.199 E28.95449
G0 F2625 X68.335 Y73.575
G1 F900 X68.616 Y73.329 E28.96693
G1 X68.781 Y73.267 E28.9728
G1 X93.155 Y73.25 E29.78471
G1 X93.307 Y73.301 E29.79005
G1 X93.652 Y73.564 E29.8045
G1 X93.735 Y73.677 E29.80917
G1 X93.75 Y73.763 E29.81207
G1 X93.75 Y88.237 E30.29421
G1 X93.711 Y88.371 E30.29886
G1 X93.665 Y88.425 E30.30122
G1 X93.384 Y88.671 E30.31366
G1 X93.219 Y88.733 E30.31953
G1 X68.845 Y88.75 E31.13144
G1 X68.728 Y88.721 E31.13545
G1 X68.448 Y88.572 E31.14602
G1 X68.348 Y88.475 E31.15066
G1 X68.283 Y88.361 E31.15503
G1 X68.25 Y88.237 E31.15931
G1 X68.25 Y73.763 E31.64144
G1 X68.289 Y73.629 E31.64609
G1 X68.335 Y73.575 E31.64845
G1 F600 E29.89845
;MESH:
G0 F2625 X69.264 Y74.264
G0 X92.68 Y74.32
G0 X93.25 Y73.829
;TYPE:WALL-OUTER
G1 F600 E31.64845
G1 F900 X93.25 Y88.171 E32.12619
G1 X93.119 Y88.25 E32.13128
G1 X68.881 Y88.25 E32.93866
G1 X68.75 Y88.171 E32.94376
G1 X68.75 Y73.829 E33.42149
G1 X68.881 Y73.75 E33.42659
G1 X93.119 Y73.75 E34.23397
G1 X93.25 Y73.829 E34.23906
G0 F2625 X93.25 Y74.079
G0 X92.68 Y74.32
G0 X92.68 Y87.68
G0 X92.75 Y87.75
;TYPE:WALL-INNER
G1 F900 X69.25 Y87.75 E35.02186
G1 X69.25 Y74.25 E35.47155
G1 X92.75 Y74.25 E36.25434
G1 X92.75 Y87.75 E36.70403
G0 F2625 X92.26 Y87.26
;TYPE:SKIN
G1 F900 X69.74 Y87.26 E37.45418
G1 X69.74 Y74.74 E37.87122
G1 X92.26 Y74.74 E38.62137
G1 X92.26 Y87.26 E39.03842
G0 F2625 X92.034 Y75.063
G1 F900 X91.935 Y74.964 E39.04308
G0 F2625 X91.228 Y74.964
G1 F900 X92.034 Y75.77 E39.08105
G0 F2625 X92.034 Y76.477
G1 F900 X90.52 Y74.964 E39.15235
G0 F2625 X89.813 Y74.964
G1 F900 X92.034 Y77.184 E39.25695
G0 F2625 X92.034 Y77.892
G1 F900 X89.106 Y74.964 E39.39488
G0 F2625 X88.399 Y74.964
G1 F900 X92.034 Y78.599 E39.56612
G0 F2625 X92.034 Y79.306
G1 F900 X87.692 Y74.964 E39.77066
G0 F2625 X86.985 Y74.964
G1 F900 X92.034 Y80.013 E40.00851
G0 F2625 X92.034 Y80.72
G1 F900 X86.278 Y74.964 E40.27967
G0 F2625 X85.571 Y74.964
